X:0152
T:The Polygon
M:6/8
L:1/8
Q:3/8=120
I: :: ::
N:first part printed as ending d2
Z:Jack Campin * www.campin.me.uk * 2009
K:D
(f/g/)|afd ecA|dBG {G}F2E|DFA Bgf|efd {d}c2
(f/g/)|afd ecA|dBG    F2E|DFA Bgd|edc [1 d2:|\
                                      [2 d3||
       Ace gec|Adf    afd|Ace gec|Bed    c3 |
       Ace gec|Adf    afd|AcA Bgf|edc    d3:|
<end>
<start>
